X: 40556
T: Tommy Peoples'
R: reel
M: 4/4
K: Gmajor
G2 BG cABG|AD D2 FGAF|G2 BG cABG|Addc BGGF|
G3B c3B|AD D2 FGAF|G3B cABG|Addc BGGf||
g2dg egde|g2dg eaaf|g2dg egdB|cAdc BGGf|
g2dg egde|g2dg eaaf|g2dg egdB|cAdc BGGF||

